X:1
T:Royal Songs
T:Silas Jones Vail
T:Royal Songs
T:Public Domain
T:Public Domain
C:Silas Jones Vail
Z:Public Domain
%%score ( 1 2 ) ( 3 4 )
L:1/8
M:4/4
K:A
V:1 treble 
V:2 treble 
V:3 bass 
V:4 bass 
V:1
 [CE]>[CA] | [Ec]6 [Fd]>[Ec] | [Dc]2 [DB]2 [DF]2 [FA]>[DF] | E2 [CA]2 [Ec]2 [EB]>[^DA] | %4
w: 1.~Roy- al|songs, for the|young and old, Of the|King of Grace and His|
w: 2.~Roy- al|songs, for the|wear- y one, Of a|peace- ful rest when the|
w: 3.~Roy- al|songs, of a|glor- ious land, Where the|pure in heart with the|
 [Ec]2 [EB]2 [EB]2 [Ec]>[Ed] | [Ee]2 [Ee]2 [Ee]2 [Ec]>[EB] | [EA]2 (B>c) [Fd]2 [EB]>[EB] | %7
w: cious fold, Where the soul|may turn and with joy|come in, * At the door|
w: is done, Songs of love|and praise to our might-|y King, * From the hearts|
w: gels stand, And the Sav-|ior’s voice of e- ter-|nal love * Shall the wel-|
 [Ee]2 (ed) (cB) [EA]>[FB] | [Ec]2 [DB]2 [CA]2 ||"^Refrain" [EB]>[Ac] | [Gd]6 [Ec]>[Ed] | %11
w: grace, from * the * paths of||||
w: all may * they * sweet- ly|al songs, roy-|al songs,|Roy- al songs|
w: be to * that * home a-||||
 [Ee]6 [Ec]>[EB] | [EA]2 [FB]>[Fc] [Fd] [Fd]2 [Ed] | [Ec][FB][EA][DG] [CA]2 |] %14
w: |||
w: when the ran-|somed Shall lay their tro- phies|down. * * * *|
w: |||
V:2
 x2 | x8 | x8 | E2 x6 | x8 | x8 | x2 F2 x4 | x2 E2 E2 x2 | x6 || x2 | x8 | x8 | x8 | x6 |] %14
w: |||pre-|||of|sin. *|||||||
w: |||work|||of|ring. Roy-|||||||
w: |||an-|||come|bove. *|||||||
V:3
 [A,,A,]>[A,,A,] | [A,,A,]2 [A,,A,]>[A,,A,] [A,,A,]2 [A,,A,]>[A,,A,] | %2
 [D,F,]2 [D,F,]2 [D,A,]2 [D,A,]>[D,A,] | [C,A,]2 [A,,A,]2 A,2 [G,B,]>[F,B,] | %4
 [E,A,]2 [E,G,]2 [E,G,]2 A,>[A,B,] | [A,C]2 [A,C]2 [A,C]2 [A,,A,]>[B,,G,] | %6
 [C,A,]2 ([D,A,]>[C,A,]) [B,,B,]2 [E,G,]>[D,G,] | [C,A,]2 [B,,G,]2 ([A,,A,][B,,G,]) [C,A,]>[D,A,] | %8
 [E,A,]2 [E,G,]2 [A,,A,]2 || [E,G,]>[E,A,] | [E,B,]2 [E,B,]>[E,B,] [E,B,]2 A,>[A,B,] | %11
 [A,C]2 [A,C]>[A,C] [A,C]2 [A,,A,]>[B,,G,] | [C,A,]2 [D,A,]>[C,^A,] [B,,B,] [B,,B,]2 [B,,G,] | %13
 [C,A,][D,A,][E,C][E,B,] [A,,A,]2 |] %14
V:4
 x2 | x8 | x8 | x4 A,2 x2 | x6 A,3/2 x/ | x8 | x8 | x8 | x6 || x2 | x6 A,3/2 x/ | x8 | x8 | x6 |] %14

